public/images/logo/auth-logo.svg

<svg width="231" height="48" viewBox="0 0 231 48" fill="none" xmlns="http://www.w3.org/2000/svg">
<path d="M0.425781 12.6316C0.425781 5.65535 6.08113 0 13.0574 0H35.7942C42.7704 0 48.4258 5.65535 48.4258 12.6316V35.3684C48.4258 42.3446 42.7704 48 35.7942 48H13.0574C6.08113 48 0.425781 42.3446 0.425781 35.3684V12.6316Z" fill="#465FFF"/>
<g filter="url(#filter0_d_3903_56743)">
<path d="M13.0615 12.6323C13.0615 11.237 14.1926 10.106 15.5878 10.106C16.9831 10.106 18.1142 11.237 18.1142 12.6323V35.3691C18.1142 36.7644 16.9831 37.8954 15.5878 37.8954C14.1926 37.8954 13.0615 36.7644 13.0615 35.3691V12.6323Z" fill="white"/>
</g>
<g filter="url(#filter1_d_3903_56743)">
<path d="M22.5391 22.7353C22.5391 21.3401 23.6701 20.209 25.0654 20.209C26.4606 20.209 27.5917 21.3401 27.5917 22.7353V35.3669C27.5917 36.7621 26.4606 37.8932 25.0654 37.8932C23.6701 37.8932 22.5391 36.7621 22.5391 35.3669V22.7353Z" fill="white" fill-opacity="0.9" shape-rendering="crispEdges"/>
</g>
<g filter="url(#filter2_d_3903_56743)">
<path d="M32.0078 16.4189C32.0078 15.0236 33.1389 13.8926 34.5341 13.8926C35.9294 13.8926 37.0604 15.0236 37.0604 16.4189V35.3663C37.0604 36.7615 35.9294 37.8926 34.5341 37.8926C33.1389 37.8926 32.0078 36.7615 32.0078 35.3663V16.4189Z" fill="white" fill-opacity="0.7" shape-rendering="crispEdges"/>
</g>
<path d="M66.4258 15.1724H74.0585V37.0363H78.6239V15.1724H86.2567V10.9637H66.4258V15.1724Z" fill="white"/>
<path d="M91.3521 37.5C94.0984 37.5 96.4881 36.2516 97.2371 34.4326L97.5581 37.0363H101.375V26.3362C101.375 21.4498 98.4498 18.8818 93.7061 18.8818C88.9267 18.8818 85.788 21.3785 85.788 25.1948H89.4974C89.4974 23.3402 90.9241 22.2701 93.4921 22.2701C95.7035 22.2701 97.1301 23.2332 97.1301 25.6229V26.0152L91.8514 26.4075C87.6784 26.7285 85.3243 28.7616 85.3243 32.0073C85.3243 35.3243 87.607 37.5 91.3521 37.5ZM92.7788 34.2186C90.8171 34.2186 89.747 33.4339 89.747 31.8289C89.747 30.4022 90.7814 29.5106 93.4921 29.2609L97.1658 28.9756V29.9029C97.1658 32.6136 95.4538 34.2186 92.7788 34.2186Z" fill="white"/>
<path d="M107.825 15.8857C109.252 15.8857 110.429 14.7087 110.429 13.2464C110.429 11.784 109.252 10.6427 107.825 10.6427C106.327 10.6427 105.15 11.784 105.15 13.2464C105.15 14.7087 106.327 15.8857 107.825 15.8857ZM105.649 37.0363H110.001V19.4168H105.649V37.0363Z" fill="white"/>
<path d="M118.883 37.0363V10.5H114.568V37.0363H118.883Z" fill="white"/>
<path d="M126.337 37.0363L128.441 31.0086H138.179L140.283 37.0363H145.098L135.682 10.9637H131.009L121.593 37.0363H126.337ZM132.757 18.7391C133.007 18.0258 133.221 17.2411 133.328 16.7417C133.399 17.2768 133.649 18.0614 133.863 18.7391L136.859 27.1565H129.797L132.757 18.7391Z" fill="white"/>
<path d="M154.165 37.5C156.84 37.5 159.122 36.323 160.192 34.29L160.478 37.0363H164.472V10.5H160.157V21.6638C159.051 19.9161 156.875 18.8818 154.414 18.8818C149.1 18.8818 145.89 22.8052 145.89 28.2979C145.89 33.755 149.064 37.5 154.165 37.5ZM155.128 33.5053C152.096 33.5053 150.241 31.2939 150.241 28.1552C150.241 25.0165 152.096 22.7695 155.128 22.7695C158.159 22.7695 160.121 24.9808 160.121 28.1552C160.121 31.3296 158.159 33.5053 155.128 33.5053Z" fill="white"/>
<path d="M173.359 37.0363V27.0495C173.359 24.1962 175.035 22.8408 177.104 22.8408C179.172 22.8408 180.492 24.1605 180.492 26.6215V37.0363H184.843V27.0495C184.843 24.1605 186.448 22.8052 188.553 22.8052C190.621 22.8052 191.977 24.1248 191.977 26.6572V37.0363H196.292V25.5159C196.292 21.4498 193.938 18.8818 189.658 18.8818C186.983 18.8818 184.915 20.2015 184.023 22.2345C183.096 20.2015 181.241 18.8818 178.566 18.8818C176.034 18.8818 174.25 20.0231 173.359 21.4855L173.002 19.4168H169.007V37.0363H173.359Z" fill="white"/>
<path d="M202.74 15.8857C204.167 15.8857 205.344 14.7087 205.344 13.2464C205.344 11.784 204.167 10.6427 202.74 10.6427C201.242 10.6427 200.065 11.784 200.065 13.2464C200.065 14.7087 201.242 15.8857 202.74 15.8857ZM200.564 37.0363H204.916V19.4168H200.564V37.0363Z" fill="white"/>
<path d="M213.763 37.0363V27.5489C213.763 24.6955 215.403 22.8408 218.078 22.8408C220.325 22.8408 221.788 24.2675 221.788 27.2279V37.0363H226.139V26.1935C226.139 21.6281 223.856 18.8818 219.434 18.8818C217.044 18.8818 214.904 19.9161 213.798 21.6995L213.442 19.4168H209.411V37.0363H213.763Z" fill="white"/>
<defs>
<filter id="filter0_d_3903_56743" x="12.0615" y="9.60596" width="7.05273" height="29.7896" filterUnits="userSpaceOnUse" color-interpolation-filters="sRGB">
<feFlood flood-opacity="0" result="BackgroundImageFix"/>
<feColorMatrix in="SourceAlpha" type="matrix" values="0 0 0 0 0 0 0 0 0 0 0 0 0 0 0 0 0 0 127 0" result="hardAlpha"/>
<feOffset dy="0.5"/>
<feGaussianBlur stdDeviation="0.5"/>
<feComposite in2="hardAlpha" operator="out"/>
<feColorMatrix type="matrix" values="0 0 0 0 0 0 0 0 0 0 0 0 0 0 0 0 0 0 0.12 0"/>
<feBlend mode="normal" in2="BackgroundImageFix" result="effect1_dropShadow_3903_56743"/>
<feBlend mode="normal" in="SourceGraphic" in2="effect1_dropShadow_3903_56743" result="shape"/>
</filter>
<filter id="filter1_d_3903_56743" x="21.5391" y="19.709" width="7.05273" height="19.6843" filterUnits="userSpaceOnUse" color-interpolation-filters="sRGB">
<feFlood flood-opacity="0" result="BackgroundImageFix"/>
<feColorMatrix in="SourceAlpha" type="matrix" values="0 0 0 0 0 0 0 0 0 0 0 0 0 0 0 0 0 0 127 0" result="hardAlpha"/>
<feOffset dy="0.5"/>
<feGaussianBlur stdDeviation="0.5"/>
<feComposite in2="hardAlpha" operator="out"/>
<feColorMatrix type="matrix" values="0 0 0 0 0 0 0 0 0 0 0 0 0 0 0 0 0 0 0.12 0"/>
<feBlend mode="normal" in2="BackgroundImageFix" result="effect1_dropShadow_3903_56743"/>
<feBlend mode="normal" in="SourceGraphic" in2="effect1_dropShadow_3903_56743" result="shape"/>
</filter>
<filter id="filter2_d_3903_56743" x="31.0078" y="13.3926" width="7.05273" height="26" filterUnits="userSpaceOnUse" color-interpolation-filters="sRGB">
<feFlood flood-opacity="0" result="BackgroundImageFix"/>
<feColorMatrix in="SourceAlpha" type="matrix" values="0 0 0 0 0 0 0 0 0 0 0 0 0 0 0 0 0 0 127 0" result="hardAlpha"/>
<feOffset dy="0.5"/>
<feGaussianBlur stdDeviation="0.5"/>
<feComposite in2="hardAlpha" operator="out"/>
<feColorMatrix type="matrix" values="0 0 0 0 0 0 0 0 0 0 0 0 0 0 0 0 0 0 0.12 0"/>
<feBlend mode="normal" in2="BackgroundImageFix" result="effect1_dropShadow_3903_56743"/>
<feBlend mode="normal" in="SourceGraphic" in2="effect1_dropShadow_3903_56743" result="shape"/>
</filter>
</defs>
</svg>

<?xml version="1.0" encoding="utf-8"?>
<!-- Generator: Adobe Illustrator 25.4.1, SVG Export Plug-In . SVG Version: 6.00 Build 0)  -->
<svg version="1.1" id="Layer_1" xmlns="http://www.w3.org/2000/svg" xmlns:xlink="http://www.w3.org/1999/xlink" x="0px" y="0px"
	 viewBox="0 0 231 48" style="enable-background:new 0 0 231 48;" xml:space="preserve">
<style type="text/css">
	.st0{fill:#FFFFFF;}
	.st1{fill:#FFFFFF;fill-opacity:0.9;}
</style>
<g>
	<path class="st0" d="M13.1,12.6c0-1.4,1.1-2.5,2.5-2.5c1.4,0,2.5,1.1,2.5,2.5v22.7c0,1.4-1.1,2.5-2.5,2.5c-1.4,0-2.5-1.1-2.5-2.5
		V12.6z"/>
</g>
<g>
	<path shape-rendering="crispEdges" class="st1" d="M22.5,22.7c0-1.4,1.1-2.5,2.5-2.5c1.4,0,2.5,1.1,2.5,2.5v12.6
		c0,1.4-1.1,2.5-2.5,2.5c-1.4,0-2.5-1.1-2.5-2.5V22.7z"/>
</g>
<path class="st0" d="M66.4,15.2h7.6V37h4.6V15.2h7.6V11H66.4V15.2z"/>
<path class="st0" d="M91.4,37.5c2.7,0,5.1-1.2,5.9-3.1l0.3,2.6h3.8V26.3c0-4.9-2.9-7.5-7.7-7.5c-4.8,0-7.9,2.5-7.9,6.3h3.7
	c0-1.9,1.4-2.9,4-2.9c2.2,0,3.6,1,3.6,3.4V26l-5.3,0.4c-4.2,0.3-6.5,2.4-6.5,5.6C85.3,35.3,87.6,37.5,91.4,37.5z M92.8,34.2
	c-2,0-3-0.8-3-2.4c0-1.4,1-2.3,3.7-2.6l3.7-0.3v0.9C97.2,32.6,95.5,34.2,92.8,34.2z"/>
<path class="st0" d="M107.8,15.9c1.4,0,2.6-1.2,2.6-2.6c0-1.5-1.2-2.6-2.6-2.6c-1.5,0-2.7,1.1-2.7,2.6
	C105.2,14.7,106.3,15.9,107.8,15.9z M105.6,37h4.4V19.4h-4.4V37z"/>
<path class="st0" d="M118.9,37V10.5h-4.3V37H118.9z"/>
<path class="st0" d="M126.3,37l2.1-6h9.7l2.1,6h4.8L135.7,11H131L121.6,37H126.3z M132.8,18.7c0.2-0.7,0.5-1.5,0.6-2
	c0.1,0.5,0.3,1.3,0.5,2l3,8.4h-7.1L132.8,18.7z"/>
<path class="st0" d="M154.2,37.5c2.7,0,5-1.2,6-3.2l0.3,2.7h4V10.5h-4.3v11.2c-1.1-1.7-3.3-2.8-5.7-2.8c-5.3,0-8.5,3.9-8.5,9.4
	C145.9,33.8,149.1,37.5,154.2,37.5z M155.1,33.5c-3,0-4.9-2.2-4.9-5.4s1.9-5.4,4.9-5.4c3,0,5,2.2,5,5.4S158.2,33.5,155.1,33.5z"/>
<path class="st0" d="M173.4,37V27c0-2.9,1.7-4.2,3.7-4.2c2.1,0,3.4,1.3,3.4,3.8V37h4.4V27c0-2.9,1.6-4.2,3.7-4.2
	c2.1,0,3.4,1.3,3.4,3.9V37h4.3V25.5c0-4.1-2.4-6.6-6.6-6.6c-2.7,0-4.7,1.3-5.6,3.4c-0.9-2-2.8-3.4-5.5-3.4c-2.5,0-4.3,1.1-5.2,2.6
	l-0.4-2.1h-4V37H173.4z"/>
<path class="st0" d="M202.7,15.9c1.4,0,2.6-1.2,2.6-2.6c0-1.5-1.2-2.6-2.6-2.6c-1.5,0-2.7,1.1-2.7,2.6
	C200.1,14.7,201.2,15.9,202.7,15.9z M200.6,37h4.4V19.4h-4.4V37z"/>
<path class="st0" d="M213.8,37v-9.5c0-2.9,1.6-4.7,4.3-4.7c2.2,0,3.7,1.4,3.7,4.4V37h4.4V26.2c0-4.6-2.3-7.3-6.7-7.3
	c-2.4,0-4.5,1-5.6,2.8l-0.4-2.3h-4V37H213.8z"/>
<image style="overflow:visible;enable-background:new    ;" width="799" height="814" xlink:href="C:\Users\Uzer\OneDrive - Royal School of Administration\Pictures\Food Diary.png"  transform="matrix(3.535039e-02 0 0 3.535039e-02 51.4804 9.6128)">
</image>
</svg>
